justvector/arto.svg

<?xml version="1.0" encoding="iso-8859-1"?>
<!-- Generator: Adobe Illustrator 15.0.0, SVG Export Plug-In . SVG Version: 6.00 Build 0)  -->
<!DOCTYPE svg PUBLIC "-//W3C//DTD SVG 1.1//EN" "http://www.w3.org/Graphics/SVG/1.1/DTD/svg11.dtd">
<svg version="1.1" id="Layer_1" xmlns="http://www.w3.org/2000/svg" xmlns:xlink="http://www.w3.org/1999/xlink" x="0px" y="0px"
	 width="100px" height="100px" viewBox="0 0 100 100" style="enable-background:new 0 0 100 100;" xml:space="preserve">
<path id="Arto" d="M63.662,95L63.662,95c-7.655,0-11.835-5.205-13.644-8.309c-2.025-3.387-4.346-3.846-6.347-3.846
	c-1.658,0-3.484,0.373-5.42,0.764c-1.77,0.357-3.603,0.734-5.491,0.861l-0.216,0.012l-0.209-0.035
	c-9.519-1.746-15.59-5.475-18.049-11.08c-3.603-8.221,2.064-17.176,2.307-17.551l38.43-44.387C60.832,7.164,65.91,5,70.109,5
	c8.979,0,11.869,9.665,12.144,14.775c0.003,0.125-0.159,7.528-0.321,16.211c-0.14,7.521,2.293,9.767,2.316,9.787
	c1.465,0.866,2.492,2.305,2.768,4.004c0.572,3.53-2.24,6.946-2.563,7.323l-0.467,0.545l-0.719,0.047
	c-1.107,0.699-1.824,5.914-2.025,15.461c-0.033,1.568-0.063,2.82-0.13,3.523c-0.173,9.428-3.423,13-5.855,14.854
	C70.99,93.879,67.162,95,63.662,95z M43.672,79.482c4.079,0,7.028,1.752,9.276,5.51c1.452,2.49,4.763,6.645,10.714,6.645
	c2.92,0,6.198-0.982,9.742-2.914c1.66-1.289,4.169-4.131,4.321-12.236c0.069-0.781,0.093-1.951,0.122-3.406
	c0.203-9.396,0.684-17.303,4.338-18.574c0.688-0.949,1.718-2.756,1.479-4.202c-0.076-0.459-0.305-1.148-1.395-1.81
	c-0.547-0.413-3.904-3.31-3.732-12.568c0.163-8.696,0.324-16.099,0.324-16.099c-0.022-0.349-0.745-11.466-8.752-11.466
	c-3.424,0-7.766,1.902-12.912,5.66L19.314,57.813l0,0c0.023,0-4.779,7.711-1.908,14.227c1.968,4.475,7.125,7.521,15.335,9.059
	c1.597-0.125,3.241-0.461,4.831-0.781C39.588,79.906,41.67,79.482,43.672,79.482z M73.477,51.568
	c-2.924,0.162-5.519,0.162-5.519,0.162l-0.003-25.107c0,0-0.813-6.763-7.312-2.094L26.377,64.77c0,0-2.273,3.379,0,4.018
	c0,0,2.273,1.775,4.223,0.967c1.624-1.445,8.932-11.266,27.611-13.418c-0.162,9.721,0.162,23.398,0.162,23.398s5.197,5.473,10.23,0
	c0-5.604-0.162-23.445-0.162-25.59c0.359,0.082,1.697-0.359,5.197-0.799C73.639,53.346,76.403,52.531,73.477,51.568z M59.023,51.73
	c0,0-7.799,0.645-10.885,0.795c-3.086,0.154-0.813-1.438-0.813-1.438l11.697-13.039V51.73z"/>
</svg>

<?xml version="1.0" encoding="UTF-8" standalone="no"?>
<!DOCTYPE svg PUBLIC "-//W3C//DTD SVG 1.1//EN" "http://www.w3.org/Graphics/SVG/1.1/DTD/svg11.dtd">
<svg width="100%" height="100%" viewBox="0 0 100 100" version="1.1" xmlns="http://www.w3.org/2000/svg" xmlns:xlink="http://www.w3.org/1999/xlink" xml:space="preserve" xmlns:serif="http://www.serif.com/" style="fill-rule:evenodd;clip-rule:evenodd;stroke-linejoin:round;stroke-miterlimit:2;">
    <path id="Arto" d="M73.477,51.568C70.553,51.73 67.958,51.73 67.958,51.73L67.955,26.623C67.955,26.623 67.142,19.86 60.643,24.529L26.377,64.77C26.377,64.77 24.104,68.149 26.377,68.788C26.377,68.788 28.65,70.563 30.6,69.755C32.224,68.31 39.532,58.489 58.211,56.337C58.049,66.058 58.373,79.735 58.373,79.735C58.373,79.735 63.57,85.208 68.603,79.735C68.603,74.131 68.441,56.29 68.441,54.145C68.8,54.227 70.138,53.786 73.638,53.346C73.639,53.346 76.403,52.531 73.477,51.568ZM59.023,51.73C59.023,51.73 51.224,52.375 48.138,52.525C45.052,52.679 47.325,51.087 47.325,51.087L59.022,38.048L59.022,51.73L59.023,51.73Z" style="fill:rgb(255,0,0);fill-rule:nonzero;"/>
</svg>
